Newaita-dark/apps/48/mintbackup.svg

<svg height="48pt" viewBox="0 0 48 48" width="48pt" xmlns="http://www.w3.org/2000/svg" xmlns:xlink="http://www.w3.org/1999/xlink"><linearGradient id="a"><stop offset="0" stop-opacity=".313725"/><stop offset=".222222" stop-opacity=".27451"/><stop offset="1" stop-opacity="0"/></linearGradient><radialGradient id="b" cx="450.90894" cy="189.57936" gradientTransform="matrix(.00000026 -.117199 -.210958 -.00000015 66.784728 95.392998)" gradientUnits="userSpaceOnUse" r="21.166656" xlink:href="#a"/><radialGradient id="c" cx="450.90894" cy="189.57936" gradientTransform="matrix(-.00000026 .117199 .210958 .00000015 -19.155181 -11.291222)" gradientUnits="userSpaceOnUse" r="21.166656" xlink:href="#a"/><radialGradient id="d" cx="450.90894" cy="189.57936" gradientTransform="matrix(-.00000026 -.117199 .210958 -.00000015 -19.155181 95.392998)" gradientUnits="userSpaceOnUse" r="21.166656" xlink:href="#a"/><radialGradient id="e" cx="450.90894" cy="189.57936" gradientTransform="matrix(.00000026 .117199 -.210958 .00000015 66.784725 -11.291223)" gradientUnits="userSpaceOnUse" r="21.166656" xlink:href="#a"/><linearGradient id="f" gradientTransform="matrix(.0200401 0 0 .093759 18.698079 20.158175)" gradientUnits="userSpaceOnUse" x1="255.32306" x2="255.32304" y1="233.5" y2="254.66666"><stop offset="0" stop-opacity=".27451"/><stop offset="1" stop-opacity="0"/></linearGradient><linearGradient id="g" gradientUnits="userSpaceOnUse" x1="254" x2="254" y1="-168.66667" y2="233.5"><stop offset="0" stop-color="#aed581"/><stop offset="1" stop-color="#9ccc65"/></linearGradient><linearGradient id="h" gradientUnits="userSpaceOnUse" x1="23.814816" x2="23.814816" y1="42.05096669922" y2="4.34417271465"><stop offset="0" stop-color="#424242"/><stop offset="1" stop-color="#616161"/></linearGradient><path d="m27.289062 42.050781h3.96875v-1.984375h-3.96875zm0 0" fill="url(#b)"/><path d="m20.339844 42.050781h-3.96875v1.984375h3.96875zm0 0" fill="url(#c)"/><path d="m20.339844 42.050781h-3.96875v-1.984375h3.96875zm0 0" fill="url(#d)"/><path d="m27.289062 42.050781h3.96875v1.984375h-3.96875zm0 0" fill="url(#e)"/><path d="m20.339844 41.554688h6.949218v2.480468h-6.949218zm0 0" fill="url(#f)"/><path d="m254.017409-168.671091c111.031064 0 201.064133 90.033069 201.064133 201.105795 0 111.031064-90.033069 201.064133-201.064133 201.064133-111.072726 0-201.105795-90.033069-201.105795-201.064133 0-111.072726 90.033069-201.105795 201.105795-201.105795zm0 0" fill="url(#g)" stroke="#333" stroke-linecap="round" stroke-width="3" transform="matrix(.093759 0 0 .093759 0 20.158175)"/><path d="m23.816406 42.050781c-10.445312 0-18.855468-8.410156-18.855468-18.851562 0-.0625 0-.125 0-.1875.101562 10.359375 8.472656 18.667969 18.855468 18.667969 10.382813 0 18.753906-8.308594 18.851563-18.667969v.1875c0 10.441406-8.410157 18.851562-18.851563 18.851562zm0 0" fill-opacity=".196078"/><path d="m23.816406 4.34375c-10.445312 0-18.855468 8.410156-18.855468 18.855469v.183593c.101562-10.359374 8.472656-18.667968 18.855468-18.667968 10.382813 0 18.753906 8.308594 18.851563 18.667968 0-.0625 0-.125 0-.183593 0-10.445313-8.410157-18.855469-18.851563-18.855469zm0 0" fill="#fff" fill-opacity=".392157"/><path d="m23.816406 4.203125c-10.523437 0-18.996094 8.472656-18.996094 18.996094 0 10.519531 8.472657 18.992187 18.996094 18.992187 10.519532 0 18.992188-8.472656 18.992188-18.992187 0-10.523438-8.472656-18.996094-18.992188-18.996094zm0 .28125c10.367188 0 18.710938 8.34375 18.710938 18.714844 0 10.367187-8.34375 18.710937-18.710938 18.710937-10.371094 0-18.714844-8.34375-18.714844-18.710937 0-10.371094 8.34375-18.714844 18.714844-18.714844zm0 0" fill="#212121"/><path d="m24.292969 7.320312c-.1875.003907-.378907.058594-.550781.179688l-4.960938 3.472656c-.5625.394532-.5625 1.230469 0 1.625l4.960938 3.472656c.164062.117188.359374.179688.558593.179688.550781.007812 1.003907-.4375 1.003907-.992188v-1.933593c5.027343.492187 8.929687 4.710937 8.929687 9.875 0 3.648437-1.949219 6.824219-4.867187 8.546875l.613281.433594c.679687.472656 1.078125 1.191406 1.191406 1.953124 3.632813-2.277343 6.039063-6.3125 6.039063-10.933593 0-6.8125-5.226563-12.359375-11.90625-12.863281v-2.023438c0-.574219-.46875-.980469-.976563-.992188-.011719 0-.023437 0-.035156 0zm-7.835938 4.941407c-3.632812 2.277343-6.039062 6.316406-6.039062 10.9375 0 6.8125 5.230469 12.359375 11.910156 12.859375v2.023437c0 .800781.902344 1.273438 1.558594.8125l4.960937-3.472656c.566406-.394531.566406-1.230469 0-1.625l-4.960937-3.472656c-.164063-.117188-.355469-.179688-.558594-.179688-.550781-.007812-1 .441407-1 .992188v1.933593c-5.027344-.492187-8.933594-4.710937-8.933594-9.871093 0-3.652344 1.953125-6.828125 4.871094-8.550781l-.617187-.429688v-.003906c-.679688-.472656-1.074219-1.191406-1.191407-1.953125zm0 0" fill="url(#h)"/><path d="m24.292969 7.320312c-.1875.003907-.378907.058594-.550781.179688l-4.960938 3.472656c-.359375.253906-.488281.679688-.390625 1.0625.054687-.21875.183594-.421875.390625-.5625l4.960938-3.476562c.171874-.121094.363281-.175782.550781-.179688h.035156c.507813.011719.976563.417969.976563.996094v-.5c0-.574219-.46875-.980469-.976563-.992188-.011719 0-.023437 0-.035156 0zm1.011719 3.015626v.496093c6.59375.496094 11.773437 5.910157 11.902343 12.605469.003907-.078125.003907-.160156.003907-.238281 0-6.8125-5.226563-12.359375-11.90625-12.863281zm-8.847657 1.925781c-3.632812 2.277343-6.039062 6.316406-6.039062 10.9375 0 .078125.003906.160156.003906.242187.085937-4.515625 2.46875-8.449218 6.035156-10.683594.117188.761719.511719 1.480469 1.191407 1.957032l.238281.167968c.125-.082031.25-.160156.378906-.234374l-.617187-.429688v-.003906c-.679688-.472656-1.074219-1.191406-1.191407-1.953125zm17.769531 11.289062c-.121093 3.5-2.035156 6.527344-4.859374 8.195313l.375.265625c2.617187-1.710938 4.371093-4.621094 4.484374-7.964844.003907.035156.003907.074219.003907.109375.003906-.085938.003906-.167969.003906-.25 0-.121094-.003906-.238281-.007813-.355469zm-20.824218 0c-.003906.117188-.007813.234375-.007813.355469 0 .082031.003907.167969.003907.253906.003906-.035156.003906-.074218.003906-.113281.175781 5 4.011718 9.039063 8.925781 9.523437v-.5c-4.914063-.480468-8.75-4.519531-8.925781-9.519531zm9.925781 6.59375c-.550781-.007812-1 .441407-1 .992188v.496093c0-.550781.449219-.996093 1-.992187.203125.003906.394531.066406.558594.179687l4.960937 3.472657c.207032.144531.335938.347656.394532.5625.097656-.378907-.035157-.808594-.394532-1.058594l-4.960937-3.472656c-.164063-.117188-.355469-.179688-.558594-.179688zm0 0" fill="#fff" fill-opacity=".392157"/><path d="m18.492188 12.234375c-.246094.425781-.152344 1 .289062 1.308594l4.960938 3.472656c.164062.113281.359374.175781.558593.179687.550781.003907 1.003907-.441406 1.003907-.992187v-.992187c0 .550781-.453126.996093-1.003907.992187-.199219-.003906-.394531-.066406-.558593-.179687l-4.960938-3.472657c-.125-.085937-.222656-.195312-.289062-.316406zm6.8125 1.039063v.992187c4.863281.480469 8.675781 4.445313 8.917968 9.378906.007813-.164062.011719-.328125.011719-.496093 0-5.160157-3.902344-9.378907-8.929687-9.875zm-7.769532 1.800781c-2.507812 1.800781-4.140625 4.738281-4.140625 8.074219 0 .167968.007813.332031.015625.496093.164063-3.4375 2.070313-6.40625 4.855469-8.050781l-.617187-.433594c-.039063-.027344-.078126-.054687-.113282-.085937zm19.667969 8.566406c-.164063 4.414063-2.527344 8.25-6.03125 10.445313-.109375-.71875-.46875-1.398438-1.074219-1.871094-.238281.167968-.480468.328125-.730468.476562l.613281.429688c.679687.476562 1.078125 1.195312 1.191406 1.957031 3.632813-2.277344 6.039063-6.316406 6.039063-10.9375 0-.167969-.003907-.332031-.007813-.5zm-26.773437.007813c-.007813.164062-.011719.328124-.011719.492187 0 6.8125 5.230469 12.359375 11.910156 12.863281v-.992187c-6.515625-.492188-11.652344-5.78125-11.898437-12.363281zm18.710937 11.40625c-.070313.121093-.167969.230468-.292969.316406l-4.960937 3.472656c-.65625.460938-1.558594-.007812-1.558594-.8125v.992188c0 .804687.902344 1.273437 1.558594.8125l4.960937-3.472657c.441406-.304687.539063-.882812.292969-1.308593zm0 0" fill-opacity=".235294"/><path d="m979.276575 295.089934c-7.558334.157466-15.274132 2.361979-22.202605 7.243403l-199.980905 139.986634c-22.675 15.903993-22.675 49.601563 0 65.505556l199.980905 139.986634c6.613542 4.723958 14.486806 7.243403 22.517535 7.243403 22.202605.31493 40.468577-17.636112 40.468577-39.996181v-77.945314c202.657815 19.840626 359.96563 189.903128 359.96563 398.072228 0 147.072571-78.575175 275.091843-196.201739 344.534032l24.722049 17.478646c27.398959 19.053299 43.460417 48.02691 48.02691 78.73264 146.442711-91.802259 243.441323-254.463893 243.441323-440.745318 0-274.619448-210.688544-498.220146-479.954173-518.533167v-81.567015c0-23.147396-18.895833-39.523785-39.36632-39.996181-.472395 0-.944791 0-1.417187 0zm-315.875351 199.193579c-146.442711 91.802258-243.441323 254.621358-243.441323 440.902784 0 274.619447 210.84601 498.220145 480.111638 518.3757v81.567015c0 32.280383 36.37448 51.333682 62.828647 32.752779l199.980905-139.986634c22.832466-15.903993 22.832466-49.601563 0-65.505557l-199.980905-139.986633c-6.613542-4.723959-14.329341-7.243403-22.517535-7.243403-22.202605-.314931-40.311112 17.793577-40.311112 39.996181v77.945313c-202.657815-19.840625-360.123095-189.903127-360.123095-397.914761 0-147.230037 78.73264-275.24931 196.359204-344.691498l-24.879514-17.321181v-.157465c-27.398959-19.053299-43.302952-48.02691-48.02691-78.73264zm0 0" fill="none" stroke="#212121" stroke-linecap="round" stroke-width="11.338583" transform="scale(.0248071)"/></svg>

<?xml version="1.0" encoding="UTF-8"?>
<svg xmlns="http://www.w3.org/2000/svg" xmlns:xlink="http://www.w3.org/1999/xlink" width="48pt" height="48pt" viewBox="0 0 48 48" version="1.1">
<defs>
<radialGradient id="radial0" gradientUnits="userSpaceOnUse" cx="450.90894" cy="189.57936" fx="450.90894" fy="189.57936" r="21.166656" gradientTransform="matrix(0.000000261256,-0.117199,-0.210958,-0.000000152308,66.784728,95.392998)">
<stop offset="0" style="stop-color:rgb(0%,0%,0%);stop-opacity:0.313725;"/>
<stop offset="0.222222" style="stop-color:rgb(0%,0%,0%);stop-opacity:0.27451;"/>
<stop offset="1" style="stop-color:rgb(0%,0%,0%);stop-opacity:0;"/>
</radialGradient>
<radialGradient id="radial1" gradientUnits="userSpaceOnUse" cx="450.90894" cy="189.57936" fx="450.90894" fy="189.57936" r="21.166656" gradientTransform="matrix(-0.000000261256,0.117199,0.210958,0.000000152308,-19.155181,-11.291222)">
<stop offset="0" style="stop-color:rgb(0%,0%,0%);stop-opacity:0.313725;"/>
<stop offset="0.222222" style="stop-color:rgb(0%,0%,0%);stop-opacity:0.27451;"/>
<stop offset="1" style="stop-color:rgb(0%,0%,0%);stop-opacity:0;"/>
</radialGradient>
<radialGradient id="radial2" gradientUnits="userSpaceOnUse" cx="450.90894" cy="189.57936" fx="450.90894" fy="189.57936" r="21.166656" gradientTransform="matrix(-0.000000261256,-0.117199,0.210958,-0.000000152308,-19.155181,95.392998)">
<stop offset="0" style="stop-color:rgb(0%,0%,0%);stop-opacity:0.313725;"/>
<stop offset="0.222222" style="stop-color:rgb(0%,0%,0%);stop-opacity:0.27451;"/>
<stop offset="1" style="stop-color:rgb(0%,0%,0%);stop-opacity:0;"/>
</radialGradient>
<radialGradient id="radial3" gradientUnits="userSpaceOnUse" cx="450.90894" cy="189.57936" fx="450.90894" fy="189.57936" r="21.166656" gradientTransform="matrix(0.000000261256,0.117199,-0.210958,0.000000152308,66.784725,-11.291223)">
<stop offset="0" style="stop-color:rgb(0%,0%,0%);stop-opacity:0.313725;"/>
<stop offset="0.222222" style="stop-color:rgb(0%,0%,0%);stop-opacity:0.27451;"/>
<stop offset="1" style="stop-color:rgb(0%,0%,0%);stop-opacity:0;"/>
</radialGradient>
<linearGradient id="linear0" gradientUnits="userSpaceOnUse" x1="255.32306" y1="233.5" x2="255.32304" y2="254.66666" gradientTransform="matrix(0.0200401,0,0,0.093759,18.698079,20.158175)">
<stop offset="0" style="stop-color:rgb(0%,0%,0%);stop-opacity:0.27451;"/>
<stop offset="1" style="stop-color:rgb(0%,0%,0%);stop-opacity:0;"/>
</linearGradient>
<linearGradient id="linear1" gradientUnits="userSpaceOnUse" x1="254" y1="-168.66667" x2="254" y2="233.5" gradientTransform="matrix(1,0,0,1,0,0)">
<stop offset="0" style="stop-color:rgb(68.235294%,83.529412%,50.588235%);stop-opacity:1;"/>
<stop offset="1" style="stop-color:rgb(61.176471%,80%,39.607843%);stop-opacity:1;"/>
</linearGradient>
<linearGradient id="linear2" gradientUnits="userSpaceOnUse" x1="960" y1="1695.1182" x2="960" y2="175.11812" gradientTransform="matrix(0.0248071,0,0,0.0248071,0,0)">
<stop offset="0" style="stop-color:rgb(25.882353%,25.882353%,25.882353%);stop-opacity:1;"/>
<stop offset="1" style="stop-color:rgb(38.039216%,38.039216%,38.039216%);stop-opacity:1;"/>
</linearGradient>
</defs>
<g id="surface1">
<path style=" stroke:none;fill-rule:nonzero;fill:url(#radial0);" d="M 27.289062 42.050781 L 31.257812 42.050781 L 31.257812 40.066406 L 27.289062 40.066406 Z M 27.289062 42.050781 "/>
<path style=" stroke:none;fill-rule:nonzero;fill:url(#radial1);" d="M 20.339844 42.050781 L 16.371094 42.050781 L 16.371094 44.035156 L 20.339844 44.035156 Z M 20.339844 42.050781 "/>
<path style=" stroke:none;fill-rule:nonzero;fill:url(#radial2);" d="M 20.339844 42.050781 L 16.371094 42.050781 L 16.371094 40.066406 L 20.339844 40.066406 Z M 20.339844 42.050781 "/>
<path style=" stroke:none;fill-rule:nonzero;fill:url(#radial3);" d="M 27.289062 42.050781 L 31.257812 42.050781 L 31.257812 44.035156 L 27.289062 44.035156 Z M 27.289062 42.050781 "/>
<path style=" stroke:none;fill-rule:nonzero;fill:url(#linear0);" d="M 20.339844 41.554688 L 27.289062 41.554688 L 27.289062 44.035156 L 20.339844 44.035156 Z M 20.339844 41.554688 "/>
<path style="fill-rule:nonzero;fill:url(#linear1);stroke-width:3;stroke-linecap:round;stroke-linejoin:miter;stroke:rgb(20%,20%,20%);stroke-opacity:1;stroke-miterlimit:4;" d="M 254.017409 -168.671091 C 365.048473 -168.671091 455.081542 -78.638022 455.081542 32.434704 C 455.081542 143.465768 365.048473 233.498837 254.017409 233.498837 C 142.944683 233.498837 52.911614 143.465768 52.911614 32.434704 C 52.911614 -78.638022 142.944683 -168.671091 254.017409 -168.671091 Z M 254.017409 -168.671091 " transform="matrix(0.093759,0,0,0.093759,0,20.158175)"/>
<path style=" stroke:none;fill-rule:nonzero;fill:rgb(0%,0%,0%);fill-opacity:0.196078;" d="M 23.816406 42.050781 C 13.371094 42.050781 4.960938 33.640625 4.960938 23.199219 C 4.960938 23.136719 4.960938 23.074219 4.960938 23.011719 C 5.0625 33.371094 13.433594 41.679688 23.816406 41.679688 C 34.199219 41.679688 42.570312 33.371094 42.667969 23.011719 C 42.667969 23.074219 42.667969 23.136719 42.667969 23.199219 C 42.667969 33.640625 34.257812 42.050781 23.816406 42.050781 Z M 23.816406 42.050781 "/>
<path style=" stroke:none;fill-rule:nonzero;fill:rgb(100%,100%,100%);fill-opacity:0.392157;" d="M 23.816406 4.34375 C 13.371094 4.34375 4.960938 12.753906 4.960938 23.199219 C 4.960938 23.257812 4.960938 23.320312 4.960938 23.382812 C 5.0625 13.023438 13.433594 4.714844 23.816406 4.714844 C 34.199219 4.714844 42.570312 13.023438 42.667969 23.382812 C 42.667969 23.320312 42.667969 23.257812 42.667969 23.199219 C 42.667969 12.753906 34.257812 4.34375 23.816406 4.34375 Z M 23.816406 4.34375 "/>
<path style=" stroke:none;fill-rule:nonzero;fill:rgb(12.941176%,12.941176%,12.941176%);fill-opacity:1;" d="M 23.816406 4.203125 C 13.292969 4.203125 4.820312 12.675781 4.820312 23.199219 C 4.820312 33.71875 13.292969 42.191406 23.816406 42.191406 C 34.335938 42.191406 42.808594 33.71875 42.808594 23.199219 C 42.808594 12.675781 34.335938 4.203125 23.816406 4.203125 Z M 23.816406 4.484375 C 34.183594 4.484375 42.527344 12.828125 42.527344 23.199219 C 42.527344 33.566406 34.183594 41.910156 23.816406 41.910156 C 13.445312 41.910156 5.101562 33.566406 5.101562 23.199219 C 5.101562 12.828125 13.445312 4.484375 23.816406 4.484375 Z M 23.816406 4.484375 "/>
<path style=" stroke:none;fill-rule:nonzero;fill:url(#linear2);" d="M 24.292969 7.320312 C 24.105469 7.324219 23.914062 7.378906 23.742188 7.5 L 18.78125 10.972656 C 18.21875 11.367188 18.21875 12.203125 18.78125 12.597656 L 23.742188 16.070312 C 23.90625 16.1875 24.101562 16.25 24.300781 16.25 C 24.851562 16.257812 25.304688 15.8125 25.304688 15.257812 L 25.304688 13.324219 C 30.332031 13.816406 34.234375 18.035156 34.234375 23.199219 C 34.234375 26.847656 32.285156 30.023438 29.367188 31.746094 L 29.980469 32.179688 C 30.660156 32.652344 31.058594 33.371094 31.171875 34.132812 C 34.804688 31.855469 37.210938 27.820312 37.210938 23.199219 C 37.210938 16.386719 31.984375 10.839844 25.304688 10.335938 L 25.304688 8.3125 C 25.304688 7.738281 24.835938 7.332031 24.328125 7.320312 C 24.316406 7.320312 24.304688 7.320312 24.292969 7.320312 Z M 16.457031 12.261719 C 12.824219 14.539062 10.417969 18.578125 10.417969 23.199219 C 10.417969 30.011719 15.648438 35.558594 22.328125 36.058594 L 22.328125 38.082031 C 22.328125 38.882812 23.230469 39.355469 23.886719 38.894531 L 28.847656 35.421875 C 29.414062 35.027344 29.414062 34.191406 28.847656 33.796875 L 23.886719 30.324219 C 23.722656 30.207031 23.53125 30.144531 23.328125 30.144531 C 22.777344 30.136719 22.328125 30.585938 22.328125 31.136719 L 22.328125 33.070312 C 17.300781 32.578125 13.394531 28.359375 13.394531 23.199219 C 13.394531 19.546875 15.347656 16.371094 18.265625 14.648438 L 17.648438 14.21875 L 17.648438 14.214844 C 16.96875 13.742188 16.574219 13.023438 16.457031 12.261719 Z M 16.457031 12.261719 "/>
<path style=" stroke:none;fill-rule:nonzero;fill:rgb(100%,100%,100%);fill-opacity:0.392157;" d="M 24.292969 7.320312 C 24.105469 7.324219 23.914062 7.378906 23.742188 7.5 L 18.78125 10.972656 C 18.421875 11.226562 18.292969 11.652344 18.390625 12.035156 C 18.445312 11.816406 18.574219 11.613281 18.78125 11.472656 L 23.742188 7.996094 C 23.914062 7.875 24.105469 7.820312 24.292969 7.816406 C 24.304688 7.816406 24.316406 7.816406 24.328125 7.816406 C 24.835938 7.828125 25.304688 8.234375 25.304688 8.8125 L 25.304688 8.3125 C 25.304688 7.738281 24.835938 7.332031 24.328125 7.320312 C 24.316406 7.320312 24.304688 7.320312 24.292969 7.320312 Z M 25.304688 10.335938 L 25.304688 10.832031 C 31.898438 11.328125 37.078125 16.742188 37.207031 23.4375 C 37.210938 23.359375 37.210938 23.277344 37.210938 23.199219 C 37.210938 16.386719 31.984375 10.839844 25.304688 10.335938 Z M 16.457031 12.261719 C 12.824219 14.539062 10.417969 18.578125 10.417969 23.199219 C 10.417969 23.277344 10.421875 23.359375 10.421875 23.441406 C 10.507812 18.925781 12.890625 14.992188 16.457031 12.757812 C 16.574219 13.519531 16.96875 14.238281 17.648438 14.714844 L 17.886719 14.882812 C 18.011719 14.800781 18.136719 14.722656 18.265625 14.648438 L 17.648438 14.21875 L 17.648438 14.214844 C 16.96875 13.742188 16.574219 13.023438 16.457031 12.261719 Z M 34.226562 23.550781 C 34.105469 27.050781 32.191406 30.078125 29.367188 31.746094 L 29.742188 32.011719 C 32.359375 30.300781 34.113281 27.390625 34.226562 24.046875 C 34.230469 24.082031 34.230469 24.121094 34.230469 24.15625 C 34.234375 24.070312 34.234375 23.988281 34.234375 23.90625 C 34.234375 23.785156 34.230469 23.667969 34.226562 23.550781 Z M 13.402344 23.550781 C 13.398438 23.667969 13.394531 23.785156 13.394531 23.90625 C 13.394531 23.988281 13.398438 24.074219 13.398438 24.160156 C 13.402344 24.125 13.402344 24.085938 13.402344 24.046875 C 13.578125 29.046875 17.414062 33.085938 22.328125 33.570312 L 22.328125 33.070312 C 17.414062 32.589844 13.578125 28.550781 13.402344 23.550781 Z M 23.328125 30.144531 C 22.777344 30.136719 22.328125 30.585938 22.328125 31.136719 L 22.328125 31.632812 C 22.328125 31.082031 22.777344 30.636719 23.328125 30.640625 C 23.53125 30.644531 23.722656 30.707031 23.886719 30.820312 L 28.847656 34.292969 C 29.054688 34.4375 29.183594 34.640625 29.242188 34.855469 C 29.339844 34.476562 29.207031 34.046875 28.847656 33.796875 L 23.886719 30.324219 C 23.722656 30.207031 23.53125 30.144531 23.328125 30.144531 Z M 23.328125 30.144531 "/>
<path style=" stroke:none;fill-rule:nonzero;fill:rgb(0%,0%,0%);fill-opacity:0.235294;" d="M 18.492188 12.234375 C 18.246094 12.660156 18.339844 13.234375 18.78125 13.542969 L 23.742188 17.015625 C 23.90625 17.128906 24.101562 17.191406 24.300781 17.195312 C 24.851562 17.199219 25.304688 16.753906 25.304688 16.203125 L 25.304688 15.210938 C 25.304688 15.761719 24.851562 16.207031 24.300781 16.203125 C 24.101562 16.199219 23.90625 16.136719 23.742188 16.023438 L 18.78125 12.550781 C 18.65625 12.464844 18.558594 12.355469 18.492188 12.234375 Z M 25.304688 13.273438 L 25.304688 14.265625 C 30.167969 14.746094 33.980469 18.710938 34.222656 23.644531 C 34.230469 23.480469 34.234375 23.316406 34.234375 23.148438 C 34.234375 17.988281 30.332031 13.769531 25.304688 13.273438 Z M 17.535156 15.074219 C 15.027344 16.875 13.394531 19.8125 13.394531 23.148438 C 13.394531 23.316406 13.402344 23.480469 13.410156 23.644531 C 13.574219 20.207031 15.480469 17.238281 18.265625 15.59375 L 17.648438 15.160156 C 17.609375 15.132812 17.570312 15.105469 17.535156 15.074219 Z M 37.203125 23.640625 C 37.039062 28.054688 34.675781 31.890625 31.171875 34.085938 C 31.0625 33.367188 30.703125 32.6875 30.097656 32.214844 C 29.859375 32.382812 29.617188 32.542969 29.367188 32.691406 L 29.980469 33.121094 C 30.660156 33.597656 31.058594 34.316406 31.171875 35.078125 C 34.804688 32.800781 37.210938 28.761719 37.210938 24.140625 C 37.210938 23.972656 37.207031 23.808594 37.203125 23.640625 Z M 10.429688 23.648438 C 10.421875 23.8125 10.417969 23.976562 10.417969 24.140625 C 10.417969 30.953125 15.648438 36.5 22.328125 37.003906 L 22.328125 36.011719 C 15.8125 35.519531 10.675781 30.230469 10.429688 23.648438 Z M 29.140625 35.054688 C 29.070312 35.175781 28.972656 35.285156 28.847656 35.371094 L 23.886719 38.84375 C 23.230469 39.304688 22.328125 38.835938 22.328125 38.03125 L 22.328125 39.023438 C 22.328125 39.828125 23.230469 40.296875 23.886719 39.835938 L 28.847656 36.363281 C 29.289062 36.058594 29.386719 35.480469 29.140625 35.054688 Z M 29.140625 35.054688 "/>
<path style="fill:none;stroke-width:11.338583;stroke-linecap:round;stroke-linejoin:miter;stroke:rgb(12.941176%,12.941176%,12.941176%);stroke-opacity:1;stroke-miterlimit:4;" d="M 979.276575 295.089934 C 971.718241 295.2474 964.002443 297.451913 957.07397 302.333337 L 757.093065 442.319971 C 734.418065 458.223964 734.418065 491.921534 757.093065 507.825527 L 957.07397 647.812161 C 963.687512 652.536119 971.560776 655.055564 979.591505 655.055564 C 1001.79411 655.370494 1020.060082 637.419452 1020.060082 615.059383 L 1020.060082 537.114069 C 1222.717897 556.954695 1380.025712 727.017197 1380.025712 935.186297 C 1380.025712 1082.258868 1301.450537 1210.27814 1183.823973 1279.720329 L 1208.546022 1297.198975 C 1235.944981 1316.252274 1252.006439 1345.225885 1256.572932 1375.931615 C 1403.015643 1284.129356 1500.014255 1121.467722 1500.014255 935.186297 C 1500.014255 660.566849 1289.325711 436.966151 1020.060082 416.65313 L 1020.060082 335.086115 C 1020.060082 311.938719 1001.164249 295.56233 980.693762 295.089934 C 980.221367 295.089934 979.748971 295.089934 979.276575 295.089934 Z M 663.401224 494.283513 C 516.958513 586.085771 419.959901 748.904871 419.959901 935.186297 C 419.959901 1209.805744 630.805911 1433.406442 900.071539 1453.561997 L 900.071539 1535.129012 C 900.071539 1567.409395 936.446019 1586.462694 962.900186 1567.881791 L 1162.881091 1427.895157 C 1185.713557 1411.991164 1185.713557 1378.293594 1162.881091 1362.3896 L 962.900186 1222.402967 C 956.286644 1217.679008 948.570845 1215.159564 940.382651 1215.159564 C 918.180046 1214.844633 900.071539 1232.953141 900.071539 1255.155745 L 900.071539 1333.101058 C 697.413724 1313.260433 539.948444 1143.197931 539.948444 935.186297 C 539.948444 787.95626 618.681084 659.936987 736.307648 590.494799 L 711.428134 573.173618 L 711.428134 573.016153 C 684.029175 553.962854 668.125182 524.989243 663.401224 494.283513 Z M 663.401224 494.283513 " transform="matrix(0.0248071,0,0,0.0248071,0,0)"/>
</g>
</svg>
